icons/multi-select-16.svg

<svg xmlns="http://www.w3.org/2000/svg" width="16" height="16" viewBox="0 0 16 16">
  <defs/>
  <path d="M5.75,7.5 L13.25,7.5 C13.664,7.5 14,7.836 14,8.25 C14,8.664 13.664,9 13.25,9 L5.75,9 C5.336,9 5,8.664 5,8.25 C5,7.836 5.336,7.5 5.75,7.5 Z M5.75,12.5 L13.25,12.5 C13.664,12.5 14,12.836 14,13.25 C14,13.664 13.664,14 13.25,14 L5.75,14 C5.336,14 5,13.664 5,13.25 C5,12.836 5.336,12.5 5.75,12.5 Z M1.75,2.5 L8.25,2.5 C8.664,2.5 9,2.836 9,3.25 C9,3.664 8.664,4 8.25,4 L1.75,4 C1.336,4 1,3.664 1,3.25 C1,2.836 1.336,2.5 1.75,2.5 Z M2,14 C1.448,14 1,13.552 1,13 C1,12.448 1.448,12 2,12 C2.552,12 3,12.448 3,13 C3,13.552 2.552,14 2,14 Z M3,8 C3,8.552 2.552,9 2,9 C1.448,9 1,8.552 1,8 C1,7.448 1.448,7 2,7 C2.552,7 3,7.448 3,8 Z"/>
  <path d="M13.314,4.918 L11.07,2.417 A0.25 0.25 0 0 1 11.256,2 L15.744,2 A0.25 0.25 0 0 1 15.93,2.417 L13.686,4.917 A0.25 0.25 0 0 1 13.314,4.917 Z"/>
</svg>

<svg xmlns="http://www.w3.org/2000/svg" width="16" height="16" viewBox="0 0 16 16"><path d="M5.75 7.5h7.5a.75.75 0 010 1.5h-7.5a.75.75 0 010-1.5zm0 5h7.5a.75.75 0 010 1.5h-7.5a.75.75 0 010-1.5zm-4-10h6.5a.75.75 0 010 1.5h-6.5a.75.75 0 010-1.5zM2 14a1 1 0 110-2 1 1 0 010 2zm1-6a1 1 0 11-2 0 1 1 0 012 0zm10.314-3.082L11.07 2.417A.25.25 0 0111.256 2h4.488a.25.25 0 01.186.417l-2.244 2.5a.25.25 0 01-.372 0z"/></svg>
